img/hero/icons/icno2.svg

<svg width="35" height="31" viewBox="0 0 35 31" fill="none" xmlns="http://www.w3.org/2000/svg">
<path fill-rule="evenodd" clip-rule="evenodd" d="M3.10728 0.17865L2.93945 0.357228V2.94391V5.53052H3.52051H4.10156V3.3838V1.23709H6.11816H8.13477V0.618545V0H5.70493H3.27503L3.10728 0.17865ZM16.8848 2.47418C16.8848 3.83498 16.8584 4.94836 16.8263 4.94836C16.7942 4.94836 16.3713 4.98198 15.8864 5.02302C12.3418 5.32341 9.02631 6.54078 6.08959 8.62011C4.92987 9.44125 4.23924 10.0405 3.15362 11.1676C1.67699 12.7005 0 15.0089 0 15.5084C0 15.6786 0.439482 16.4386 1.02922 17.2884C1.8794 18.5135 3.50437 20.3029 4.64844 21.2739C6.10545 22.5104 8.24277 23.8205 10.0035 24.5562C11.9051 25.3508 13.9037 25.8111 16.355 26.0191L16.8848 26.0641V28.532V31H17.5H18.1152V28.5258C18.1152 27.165 18.1416 26.0516 18.1737 26.0516C18.5351 26.0516 20.1762 25.8712 20.8247 25.7603C21.962 25.5655 23.578 25.1165 24.6436 24.6991C26.495 23.9737 28.7924 22.5976 30.3516 21.28C31.3374 20.447 33.1184 18.4843 33.8796 17.392C34.7398 16.1578 35 15.7163 35 15.4916C35 15.3214 34.5605 14.5614 33.9708 13.7116C33.12 12.4856 31.4935 10.6948 30.3516 9.72665C27.5673 7.36628 24.1827 5.78616 20.6787 5.21098C20.1398 5.1225 18.4788 4.94836 18.1737 4.94836C18.1416 4.94836 18.1152 3.83498 18.1152 2.47418V0H17.5H16.8848V2.47418ZM26.8652 0.618545V1.23709H28.8818H30.8984V3.3838V5.53052H31.4795H32.0605V2.94391V0.357228L31.8927 0.17865L31.725 0H29.2951H26.8652V0.618545ZM16.8848 8.07747V9.89671H17.5H18.1152V8.07747V6.25822H18.3608C18.8117 6.25822 19.9873 6.55606 20.6892 6.84824C23.4713 8.00586 25.5161 10.6348 26.0794 13.7781C26.1356 14.0918 26.1816 14.4602 26.1816 14.5968V14.8451H24.4727H22.7637V15.5V16.1549H24.4825H26.2013L26.1576 16.6549C26.0998 17.3171 25.8345 18.3858 25.5497 19.1039C24.4132 21.9695 21.9944 24.0487 19.1175 24.633C18.8228 24.6928 18.4768 24.7418 18.3485 24.7418H18.1152V22.9225V21.1033H17.5H16.8848V22.9225V24.7418H16.6515C16.5232 24.7418 16.1772 24.6928 15.8825 24.633C12.8975 24.0267 10.4379 21.8354 9.33721 18.8017C9.09043 18.1215 8.81836 16.8707 8.81836 16.4164V16.1549H10.5273H12.2363V15.5V14.8451H10.5273H8.81836V14.5836C8.81836 14.4398 8.88159 13.9917 8.95891 13.5878C9.54509 10.5261 11.6065 7.95841 14.4004 6.80974C15.0674 6.53554 16.1268 6.27168 16.5942 6.26338L16.8848 6.25822V8.07747ZM10.651 7.91373C9.3005 9.29287 8.38961 10.9449 7.92723 12.854C7.8171 13.3086 7.70342 13.9344 7.67457 14.2446L7.62207 14.8087L5.28076 14.8278L2.93945 14.847V15.5V16.153L5.28076 16.1722L7.62207 16.1913L7.67457 16.7554C7.70342 17.0656 7.8171 17.6914 7.92723 18.146C8.39104 20.0609 9.29995 21.7066 10.6621 23.0976C11.0111 23.454 11.2389 23.7208 11.1683 23.6905C11.0978 23.6601 10.8862 23.5762 10.6982 23.504C9.02344 22.8611 7.20405 21.7797 5.57129 20.4565C4.30657 19.4316 2.50585 17.4115 1.59106 15.9912L1.2747 15.5L1.59106 15.0088C2.50585 13.5885 4.30657 11.5684 5.57129 10.5435C7.03568 9.35676 8.70126 8.33587 10.1855 7.71522C10.5803 7.55017 10.9648 7.38622 11.04 7.35093C11.3081 7.22526 11.2669 7.28478 10.651 7.91373ZM24.5946 7.6121C26.2468 8.30334 28.0291 9.39118 29.5312 10.6251C30.7512 11.6273 32.5155 13.6218 33.4085 15.0081L33.7244 15.4986L33.3968 16.0044C32.4814 17.4176 30.7683 19.3538 29.5312 20.3732C28.0527 21.5916 25.9798 22.8539 24.5409 23.4121C24.2214 23.5361 23.9077 23.6596 23.8438 23.6866C23.78 23.7136 24.031 23.4185 24.4017 23.0307C25.7742 21.5954 26.6424 19.9846 27.104 18.0175C27.1989 17.6135 27.2993 17.0373 27.3272 16.7371L27.3779 16.1913L29.7192 16.1722L32.0605 16.153V15.5V14.847L29.7192 14.8278L27.3779 14.8087L27.3272 14.2629C27.2993 13.9627 27.1989 13.3865 27.104 12.9825C26.6431 11.0186 25.7739 9.40428 24.4078 7.97559C24.0404 7.59136 23.752 7.277 23.7668 7.277C23.7816 7.277 24.1542 7.42777 24.5946 7.6121ZM16.8337 11.21C15.8445 11.3978 14.8496 12.0466 14.2528 12.8931C12.523 15.3465 13.6343 18.8003 16.4404 19.6924C17.0901 19.899 18.0774 19.8674 18.7621 19.6183C20.4693 18.997 21.5597 17.3919 21.5597 15.5C21.5597 13.1894 19.8986 11.3162 17.7254 11.1762C17.4323 11.1573 17.031 11.1725 16.8337 11.21ZM18.4984 12.5991C19.2562 12.8993 19.8002 13.435 20.1331 14.2091C20.9396 16.0842 19.8477 18.2298 17.9188 18.5605C16.3782 18.8246 14.8807 17.6358 14.625 15.9458C14.4305 14.6597 15.1196 13.2799 16.2336 12.7249C16.9887 12.3488 17.7585 12.306 18.4984 12.5991ZM2.93945 28.0561V30.6428L3.10728 30.8214L3.27503 31H5.70493H8.13477V30.3815V29.7629H6.11816H4.10156V27.6162V25.4695H3.52051H2.93945V28.0561ZM30.8984 27.6162V29.7629H28.8818H26.8652V30.3815V31H29.2951H31.725L31.8927 30.8214L32.0605 30.6428V28.0561V25.4695H31.4795H30.8984V27.6162Z" fill="url(#paint0_linear_1710_4055)"/>
<defs>
<linearGradient id="paint0_linear_1710_4055" x1="0" y1="0" x2="31.37" y2="35.5914" gradientUnits="userSpaceOnUse">
<stop stop-color="#0ABD92"/>
<stop offset="1" stop-color="#009DB8"/>
</linearGradient>
</defs>
</svg>

<svg width="35" height="31" fill="none" xmlns="http://www.w3.org/2000/svg"><path fill-rule="evenodd" clip-rule="evenodd" d="M3.107.179L2.94.357v5.174h1.162V1.237h4.034V0h-4.86l-.168.179zm13.778 2.295c0 1.361-.027 2.474-.059 2.474s-.455.034-.94.075c-3.544.3-6.86 1.518-9.796 3.597-1.16.821-1.85 1.42-2.936 2.548C1.677 12.7 0 15.008 0 15.508c0 .17.44.93 1.03 1.78.85 1.226 2.474 3.015 3.618 3.986 1.457 1.236 3.595 2.546 5.356 3.282 1.901.795 3.9 1.255 6.351 1.463l.53.045V31h1.23v-2.474c0-1.361.027-2.474.059-2.474.361 0 2.002-.18 2.65-.292a22.454 22.454 0 003.82-1.06c1.851-.726 4.148-2.102 5.708-3.42.985-.833 2.766-2.796 3.528-3.888.86-1.234 1.12-1.676 1.12-1.9 0-.17-.44-.93-1.03-1.78-.85-1.226-2.476-3.017-3.618-3.985-2.785-2.36-6.17-3.94-9.673-4.516-.54-.089-2.2-.263-2.505-.263-.032 0-.059-1.113-.059-2.474V0h-1.23v2.474zM26.865.62v.618h4.033v4.294h1.162V.357L31.893.18 31.725 0h-4.86v.619zm-9.98 7.458v1.82h1.23v-3.64h.246c.45 0 1.626.298 2.328.59 2.782 1.158 4.827 3.787 5.39 6.93.057.314.103.682.103.819v.248h-3.418v1.31H26.2l-.043.5c-.058.662-.324 1.73-.608 2.449-1.137 2.866-3.556 4.945-6.433 5.529-.294.06-.64.109-.768.109h-.234v-3.639h-1.23v3.639h-.234c-.128 0-.474-.05-.768-.109-2.985-.606-5.445-2.798-6.546-5.831-.247-.68-.519-1.931-.519-2.386v-.261h3.418v-1.31H8.818v-.261c0-.144.064-.592.14-.996.587-3.062 2.649-5.63 5.442-6.778.667-.274 1.727-.538 2.194-.547l.29-.005v1.82zm-6.234-.163c-1.35 1.379-2.261 3.03-2.724 4.94a12.22 12.22 0 00-.252 1.39l-.053.565-2.341.019-2.342.019v1.306l2.342.02 2.341.018.053.564c.028.31.142.936.252 1.391a10.454 10.454 0 002.735 4.952c.35.356.577.623.506.593a18.4 18.4 0 00-.47-.187c-1.675-.643-3.494-1.724-5.127-3.048-1.264-1.024-3.065-3.044-3.98-4.465l-.316-.491.316-.491c.915-1.42 2.716-3.44 3.98-4.466 1.465-1.186 3.13-2.207 4.614-2.828.395-.165.78-.329.855-.364.268-.126.227-.066-.389.563zm13.944-.302c1.652.691 3.434 1.78 4.936 3.013 1.22 1.002 2.985 2.997 3.877 4.383l.316.49-.327.506c-.916 1.414-2.629 3.35-3.866 4.37-1.478 1.218-3.551 2.48-4.99 3.038-.32.124-.633.248-.697.275-.064.027.187-.268.558-.656 1.372-1.436 2.24-3.046 2.702-5.014.095-.404.195-.98.223-1.28l.05-.546 2.342-.019 2.341-.019v-1.306l-2.34-.02-2.342-.018-.05-.546c-.029-.3-.13-.877-.224-1.28-.46-1.964-1.33-3.579-2.696-5.007-.368-.385-.656-.699-.641-.699.015 0 .387.15.828.335zm-7.761 3.598c-.99.188-1.984.837-2.581 1.683-1.73 2.454-.619 5.907 2.187 6.8.65.206 1.637.174 2.322-.075 1.707-.621 2.798-2.226 2.798-4.118 0-2.31-1.661-4.184-3.835-4.324a4.409 4.409 0 00-.891.034zm1.664 1.39c.758.3 1.302.835 1.635 1.61.807 1.874-.285 4.02-2.214 4.35-1.54.265-3.038-.924-3.294-2.614-.194-1.286.495-2.666 1.609-3.221.755-.376 1.524-.419 2.264-.126zM2.94 28.055v2.587l.168.178.168.179h4.86v-1.237H4.102V25.47H2.939v2.586zm27.96-.44v2.147h-4.034V31h4.86l.168-.179.167-.178v-5.174h-1.162v2.147z" fill="url(#paint0_linear_1710_4055)"/><defs><linearGradient id="paint0_linear_1710_4055" x1="0" y1="0" x2="31.37" y2="35.591" gradientUnits="userSpaceOnUse"><stop stop-color="#0ABD92"/><stop offset="1" stop-color="#009DB8"/></linearGradient></defs></svg>
